X:1
T:Title
%%score { 1 | 2 }
L:1/8
M:2/4
K:Bb
V:1 treble nm="Grand Piano"
V:2 bass 
V:1
 z2 z[Q:1/4=100] [DF] | [DF]2 [DF]>[EG] | [DF]2 [B,D][DF] | [FB]2 B>c | d3 F | G2 G>[EA] | %6
 [DB]2 [FB]c | d2 d>c | c3 F | [DF]2 [DF]>[EG] | [DF]2 [B,D][DF] | [FB]2 B>c | d3 d | %13
 [Ge]2 [Ge]>[Ge] | [Fd]2 [Fc][FB] | [Gc]2 [Fd]>[Ec] |[M:3/8] [DB]3 |[M:1/8] [FB] |[M:2/4] c2 c>c | %19
 c2 [FB]c | d2 [Fc]>[FB] | c3 d | [Ge]2 [Ge]>[Ge] | [Fd]2 [Fc][FB] | [Gc]2 [Fd]>[Ec] | %25
[M:3/8] [DB]3 |] %26
V:2
 z2 z [B,,B,] | [B,,B,]2 [B,,B,]>[B,,B,] | [B,,B,]2 [B,,F,][B,,B,] | %3
 [D,B,]2[K:treble] [G,B,D]>[F,A,F] | [B,F]3[K:bass] [D,B,] | [E,B,E]2 [E,B,E]>[C,F,] | %6
 [B,,F,]2 [D,B,][K:treble][F,A,F] | [B,F]2 [G,B,=E]>[G,CE] | [F,A,F]3[K:bass] [F,A,E] | %9
 [B,,B,]2 [B,,B,]>[B,,B,] | [B,,B,]2 [B,,F,][B,,B,] | [D,B,]2[K:treble] [G,B,D]>[F,A,F] | %12
 [B,F]3 [B,F] | [E,B,]2 [E,B,]>[E,B,] | [B,,B,]2 [C,A,][D,B,] | [E,B,]2 [F,A,]>[F,A,] | %16
[M:3/8] [B,,B,]3 |[M:1/8] [D,B,] |[M:2/4] [F,A,F]2 [F,A,F]>[F,A,F] | %19
 [F,A,F]2 [D,B,][K:treble][F,A,F] | [B,F]2[K:bass] [D,B,]>[D,B,] | [F,A,F]3 [B,F] | %22
 [E,B,]2 [E,B,]>[E,B,] | [B,,B,]2 [C,A,][D,B,] | [E,B,]2 [F,A,]>[F,A,] |[M:3/8] [B,,B,]3 |] %26

